X:1
T:188 - O Evangelho
T:Letra: Samuel Wesley Martin (1839 - ?)
T:Trad.: Joseph Jones (1848-1927)
T:Música: Samuel Wesley Martin (1839 - ?)
M: 4/4
L: 1/8
Q:1/4=110
K:F
V:1
C2| "F"F2 F2 F2 A2| d2 c4 cc| d2 c2 "Dm"F2 "C"G2| "F"A6 Ac| "C7"B2 G2 "F"A2 F2| "C"G2 c4 cc| "Dm"e2 d2 "G"c2 =B2| "C"c4z2 C2| "F"F2 F2 "Bb"F2 F2| "F"F6 FA| "C"G2 G2 "G"G2 G2| "C"G6 AG| "Dm"F2 F2 "F7"F2 F2| "Bb"F2 F4 FG| "F"A2 "(Gm)"_B2 "(F/C)"A2 "C7"G2| "F"F4z2 || A>F | "C7"c6 A>F | "F"c6 cc | d2 c2 "Dm"F2 "C"G2 | "F"A4z2 A>F | "C7"c6 c>A | "F"f4- Hf2 FG | "F"A2 "(Gm)"cB "(F/C)"A2 "C7"G2 | "F"F4 z2 |]
w: 1.~A no-va doe-van-ge-lho Já se fez ou-vir a-qui; Bo-as no-vas tão a-le-gres, E-las são pra quem ou-vir: As-sim Deus nos a-mou, Sim, a ca-da pe-ca-dor, Quem nos deu seu Fi-lhoa-ma-do Pra so-frer a nos-sa dor. San-ta paz e per-dão São as no-vas lá dos céus! San-ta paz e per-dão!_ É ben-di-to o nos-so Deus! 
w: 2.~A no-va doe-van-ge-lho Dá-nos to-dos a sa-ber Que far-tu-rahá pa-ra to-dos, Sim, pra quem com fé co-mer: Da vi-dao pão eu sou; Sa-tis-fei-to fi-ca-rás; Teus pe-ca-dos e tu-aal-ma Le-va-rei, e paz te-rás. 
w: 3.~A no-va doe-van-ge-lho O-ra vem nos a-vi-sar Do pe-ri-go gran-dee gra-ve Pa-ra quem se des-cui-dar. Sal-vai-nos des-de já; Não vos de-mo-reis, en-tão, Não vi-reis os vos-sos o-lhos, Oh, fu-gi da per-di-ção!  
w: 4.~A no-va doe-van-ge-lho Ju-bi-lo-so som nos é, Pois oa-mor de Je-sus Cris-to Dá per-dão me-dian-tea fé. As no-vas se vos dão Que já vei-oo Sal-va-dor, Tão bon-do-soe po-de-ro-so, Que per-do-aao pe-ca-dor.
W: 
W: 
W: 1. A nova do evangelho
W: Já se fez ouvir aqui;
W: Boas-novas tão alegres,
W: Elas são pra quem ouvir:
W: Assim Deus nos amou,
W: Sim, a cada pecador,
W: Quem nos deu seu Filho amado
W: Pra sofrer a nossa dor.
W: 
W:    (Estribilho)
W:    Santa paz e perdão
W:    São as novas lá dos céus! 
W:    Santa paz e perdão!
W:    É bendito o nosso Deus!
W: 
W: 2. A nova do evangelho
W: Dá-nos todos a saber
W: Que fartura há para todos,
W: Sim, pra quem com fé comer:
W: Da vida o pão eu sou;
W: Satisfeito ficarás;
W: Teus pecados e tua alma
W: Levarei, e paz terás.
W:
W: 
W:  
W: 3. A nova do evangelho
W: Ora vem nos avisar
W: Do perigo grande e grave
W: Para quem se descuidar.
W: Salvai-nos desde já;
W: Não vos demoreis, então,
W: Não vireis os vossos olhos,
W: Oh, fugi da perdição!
W: 
W: 4. A nova do evangelho
W: Jubiloso som nos é,
W: Pois o amor de Jesus Cristo
W: Dá perdão mediante a fé.
W: As novas se vos dão
W: Que já veio o Salvador,
W: Tão bondoso e poderoso,
W: Que perdoa ao pecador.
W: 
W: 





